src/Pure/16/symbolic/actions/sidebar-places-symbolic.svg

<svg width="16" height="16" enable-background="new" version="1.1" xmlns="http://www.w3.org/2000/svg">
 <path d="m2 1c-1.108 0-2 0.892-2 2v10c0 1.108 0.892 2 2 2h12c1.108 0 2-0.892 2-2v-8c0-1.108-0.892-2-2-2h-6l-2-2zm0 1h3.5859l1.4961 1.5039-1.4961 1.4961h-4.5859v-2c0-0.554 0.446-1 1-1zm6 2h6c0.554 0 1 0.446 1 1v8c0 0.554-0.446 1-1 1h-12c-0.554 0-1-0.446-1-1v-7h5z" fill="#363636" stroke-linecap="round" stroke-linejoin="round" stroke-width="1.5" style="paint-order:stroke fill markers"/>
</svg>

<?xml version="1.0" encoding="UTF-8" standalone="no"?>
<svg
   width="16"
   height="16"
   version="1.1"
   viewBox="0 0 16 16"
   id="svg1"
   sodipodi:docname="sidebar-places-symbolic.svg"
   inkscape:version="1.4.2 (ebf0e940d0, 2025-05-08)"
   xmlns:inkscape="http://www.inkscape.org/namespaces/inkscape"
   xmlns:sodipodi="http://sodipodi.sourceforge.net/DTD/sodipodi-0.dtd"
   xmlns="http://www.w3.org/2000/svg"
   xmlns:svg="http://www.w3.org/2000/svg">
  <sodipodi:namedview
     id="namedview1"
     pagecolor="#ffffff"
     bordercolor="#000000"
     borderopacity="0.25"
     inkscape:showpageshadow="2"
     inkscape:pageopacity="0.0"
     inkscape:pagecheckerboard="0"
     inkscape:deskcolor="#d1d1d1"
     inkscape:zoom="49.6875"
     inkscape:cx="8"
     inkscape:cy="8"
     inkscape:window-width="1920"
     inkscape:window-height="1010"
     inkscape:window-x="0"
     inkscape:window-y="0"
     inkscape:window-maximized="1"
     inkscape:current-layer="svg1" />
  <defs
     id="defs1">
    <style
       id="current-color-scheme"
       type="text/css">
    .ColorScheme-Text { color:#363636; }
   </style>
  </defs>
  <path
     id="path1"
     style="fill:currentColor"
     class="ColorScheme-Text"
     d="M 2 1 C 0.892 1 0 1.892 0 3 L 0 13 C 0 14.108 0.892 15 2 15 L 14 15 C 15.108 15 16 14.108 16 13 L 16 5 C 16 3.892 15.108 3 14 3 L 8 3 L 6 1 L 2 1 z M 2 2 L 5.5859375 2 L 7.0820312 3.5039062 L 5.5859375 5 L 1 5 L 1 3 C 1 2.446 1.446 2 2 2 z M 8 4 L 14 4 C 14.554 4 15 4.446 15 5 L 15 13 C 15 13.554 14.554 14 14 14 L 2 14 C 1.446 14 1 13.554 1 13 L 1 6 L 6 6 L 8 4 z " />
</svg>
